www/assets/icons/nature.svg

<svg width="24" height="24" viewBox="0 0 24 24" xmlns="http://www.w3.org/2000/svg" fill='currentColor'><path d="M12.915 16.035C16.385 15.625 19.085 12.675 19.085 9.08496C19.085 5.21496 15.955 2.08496 12.085 2.08496C8.21498 2.08496 5.08498 5.21496 5.08498 9.08496C5.08498 12.555 7.60498 15.425 10.915 15.975V19.915H4.91498V21.915H18.915V19.915H12.915V16.035Z"/></svg>

<svg xmlns="http://www.w3.org/2000/svg" width="24" height="24" viewBox="0 0 24 24" fill='currentColor'><path d="M12.915 16.035a7 7 0 0 0 6.17-6.95c0-3.87-3.13-7-7-7s-7 3.13-7 7a6.98 6.98 0 0 0 5.83 6.89v3.94h-6v2h14v-2h-6z"/></svg>
